X: 8
T: False and True
%R: jig
B: "Twenty Four Country Dances for the Year 1799", Thomas Skillern, ed. p.4 #2
F: http://www.vwml.org/browse/browse-collections-dance-tune-books/browse-skillerns1799
Z: 2014 John Chambers <jc:trillian.mit.edu>
N: The high Gs in bars 9, 11 should maybe be As, but they don't have leger lines.
M: 6/8
L: 1/8
K: D
A |\
d>cd AFD | dfe d2A | d>cd AFD | (F2G/F/ E2)A |\
d>cd AFD | dfe d2A | Bge c>Bc | d3- d2 |]
d/e/ |\
fed gfd | ecA A2d/e/ | fed gfd | (f3{gf} e2)e |\
fdc BcA | ^GBd e2d | cdc BAB | A3- "D.C."A2 |]
%%begintext align
%% Cast off 2 Cu: up again, Cross over 2 Cu: lead
%% thro' top and cast off, set corners and turn,
%% lead outsides.
%%endtext
